app/assets/images/heroicons/micro/star.svg

<svg width="16" height="16" viewBox="0 0 16 16" fill="none" xmlns="http://www.w3.org/2000/svg">
<path fill-rule="evenodd" clip-rule="evenodd" d="M7.99934 1.75C8.30229 1.75 8.57549 1.93226 8.69183 2.21198L10.1029 5.60466L13.7656 5.8983C14.0676 5.92251 14.3254 6.12601 14.419 6.41413C14.5126 6.70226 14.4237 7.01841 14.1936 7.21549L11.403 9.60592L12.2556 13.1801C12.3259 13.4748 12.212 13.7828 11.9669 13.9609C11.7218 14.1389 11.3936 14.1521 11.1351 13.9942L7.99934 12.0788L4.86357 13.9942C4.60503 14.1521 4.27688 14.1389 4.03179 13.9609C3.7867 13.7828 3.6728 13.4748 3.7431 13.1801L4.59566 9.60592L1.80508 7.21549C1.57501 7.01841 1.48609 6.70226 1.57971 6.41413C1.67333 6.12601 1.93109 5.92251 2.23307 5.8983L5.89575 5.60466L7.30685 2.21198C7.42319 1.93226 7.69639 1.75 7.99934 1.75Z" fill="black"/>
</svg>

<svg xmlns="http://www.w3.org/2000/svg" viewBox="0 0 16 16" fill="currentColor" aria-hidden="true" data-slot="icon">
  <path fill-rule="evenodd" d="M8 1.75a.75.75 0 0 1 .692.462l1.41 3.393 3.664.293a.75.75 0 0 1 .428 1.317l-2.791 2.39.853 3.575a.75.75 0 0 1-1.12.814L7.998 12.08l-3.135 1.915a.75.75 0 0 1-1.12-.814l.852-3.574-2.79-2.39a.75.75 0 0 1 .427-1.318l3.663-.293 1.41-3.393A.75.75 0 0 1 8 1.75Z" clip-rule="evenodd"/>
</svg>
